X:1
T:Title
%%score { ( 1 3 ) | 2 }
L:1/8
M:6/8
K:C
V:1 treble nm="Grand Piano"
V:3 treble 
V:2 bass 
V:1
 z3 z2[Q:1/4=72] [EG] | [EG][_E^F][=EG] [_EA][EB][Ec] | [EG][CE]>[DF] [EG]3 | GAG BAG | %4
 c[^FB]>[Fc] [Gd]2 [=FG]/[FG]/ | [EG][_E^F][=EG] cBc | [^Ge][Gd]>[GB] [Ac]2 [_Bc]/[Bc]/ | %7
 [^Gc][=G_B][F^G] [E=G][_E^F][C=EG] |[M:5/8] [C^FA][D=FB]>[DFG] [CEc]2 |[M:1/8] [G,CE] | %10
[M:3/4] [G,CE][G,DF] [G,EG][A,DF] [A,EG][A,FA] | [B,FG][B,FG]- [B,FG]/[B,FG]/ [EG]2 [EG] | %12
 [EG][EA] [EB]c B[Ec] | [^FA][FB] [Fc] d2 G/G/ | [EG][_E^F] [=EG]c Bc | %15
 [Ge][Gd]- [Gd]/[EGB]/ [EAc]2 [E_Bc] | [F^Gc][C=G_B] [CF^G][E=G] [C_E^F][C=EG] | %17
[M:5/8] [C^FA][D=FB]>[DFG] [CEc]2 |] %18
V:2
 z3 z2 [C,G,] | [C,G,][C,A,][C,G,] [C,^F,][C,F,][C,F,] | [C,G,][C,G,]>[C,G,] [C,C]3 | %3
 [G,B,F][G,CF][G,B,F] [G,DF][G,CF][G,B,F] | [A,E][D,A,]>[D,D] [G,B,]2 [G,B,] | %5
 [C,C][C,C][C,C] [A,CE][^G,DE][A,CE] | [E,B,][E,B,]>[E,E] [A,E]2 [G,E] | %7
 [F,F][F,C][F,C] [G,C][A,C]A, |[M:5/8] D,G,>G, C,2 |[M:1/8] C, |[M:3/4] C,C, C,C, C,C, | %11
 D,D,- D,/G,,/ [C,C]2 [C,C] | [C,C][C,C] [B,,G,][A,,A,] [B,,^G,][C,A,] | %13
 [D,C][D,B,] [D,A,][K:treble] [G,B,G]2 [G,B,F]/[G,B,F]/ | [C,C][C,C] [C,C][A,CE] [F,DE][A,CE] | %15
 [E,B,][E,B,]- [E,B,]/E,/ A,2 G, | F,F, F,C A,G, |[M:5/8] D,G,>G, C,2 |] %18
V:3
 x6 | x6 | x6 | x6 | x6 | x6 | x6 | x6 |[M:5/8] x5 |[M:1/8] x |[M:3/4] x6 | x6 | z2 z .E3 | x6 | %14
 x6 | x6 | x6 |[M:5/8] x5 |] %18

